packages/storefront-lwc/src/assets/fonts/flags/4x3/gm.svg

<svg height="480" width="640" xmlns="http://www.w3.org/2000/svg" xmlns:xlink="http://www.w3.org/1999/xlink"><clipPath id="a"><path d="m0-48h640v480h-640z"/></clipPath><g clip-path="url(#a)" fill-rule="evenodd" stroke-width="1pt" transform="translate(0 48)"><path d="m0-128h640v213.33h-640z" fill="#f00"/><path d="m0 85.333h640v35.556h-640z" fill="#fff"/><path d="m0 120.89h640v142.22h-640z" fill="#009"/><path d="m0 263.11h640v35.556h-640z" fill="#fff"/><path d="m0 298.67h640v213.33h-640z" fill="#090"/></g></svg>

<svg xmlns="http://www.w3.org/2000/svg" height="480" width="640" id="flag-icon-css-gm">
  <defs>
    <clipPath id="a">
      <path fill-opacity=".67" d="M0-48h640v480H0z"/>
    </clipPath>
  </defs>
  <g fill-rule="evenodd" clip-path="url(#a)" transform="translate(0 48)" stroke-width="1pt">
    <path fill="red" d="M0-128h640V85.33H0z"/>
    <path fill="#fff" d="M0 85.333h640v35.556H0z"/>
    <path fill="#009" d="M0 120.89h640v142.22H0z"/>
    <path fill="#fff" d="M0 263.11h640v35.556H0z"/>
    <path fill="#090" d="M0 298.67h640V512H0z"/>
  </g>
</svg>
